assets/img/arrow-down.svg

<svg width="16" height="9" viewBox="0 0 16 9" fill="none" xmlns="http://www.w3.org/2000/svg">
<path d="M0.6102 0.37692C0.888485 0.0930541 1.32396 0.0672481 1.63082 0.299502L1.71874 0.37692L7.99966 6.78408L14.2806 0.37692C14.5589 0.0930541 14.9943 0.0672481 15.3012 0.299502L15.3891 0.37692C15.6674 0.660787 15.6927 1.10499 15.465 1.41801L15.3891 1.50769L8.55393 8.47997C8.27564 8.76383 7.84017 8.78964 7.53331 8.55739L7.44539 8.47997L0.6102 1.50769C0.304087 1.19544 0.304087 0.689173 0.6102 0.37692Z" fill="#F0937D"/>
</svg>

<svg xmlns="http://www.w3.org/2000/svg" width="16" height="9" fill="none"><path fill="#F0937D" d="M.61.377A.773.773 0 0 1 1.63.3l.089.077 6.28 6.407L14.282.377A.773.773 0 0 1 15.3.3l.088.077a.81.81 0 0 1 .076 1.041l-.076.09L8.554 8.48a.773.773 0 0 1-1.02.077l-.089-.077L.61 1.508a.81.81 0 0 1 0-1.131"/></svg>
